src/icon/ui/close-circle/icon_close-circle_xxl_white.svg

<svg xmlns="http://www.w3.org/2000/svg" width="48" height="48" viewBox="0 0 48 48"><g fill="none" fill-rule="evenodd"><circle cx="24" cy="24" r="24" fill="#FFF" fill-rule="nonzero" opacity=".8"/><path fill="#0B1F35" fill-rule="nonzero" d="M27.0040644,24.1756373 L33.6037277,30.7753006 C34.3847763,31.5563492 34.3847763,32.8226791 33.6037277,33.6037277 C32.8226791,34.3847763 31.5563492,34.3847763 30.7753006,33.6037277 L24.1756373,27.0040644 L17.575974,33.6037277 C16.7949254,34.3847763 15.5285955,34.3847763 14.7475469,33.6037277 C13.9664983,32.8226791 13.9664983,31.5563492 14.7475469,30.7753006 L21.3472102,24.1756373 L14.7475469,17.575974 C13.9664983,16.7949254 13.9664983,15.5285955 14.7475469,14.7475469 C15.5285955,13.9664983 16.7949254,13.9664983 17.575974,14.7475469 L24.1756373,21.3472102 L30.7753006,14.7475469 C31.5563492,13.9664983 32.8226791,13.9664983 33.6037277,14.7475469 C34.3847763,15.5285955 34.3847763,16.7949254 33.6037277,17.575974 L27.0040644,24.1756373 Z"/></g></svg>

<svg xmlns="http://www.w3.org/2000/svg" width="48" height="48" viewBox="0 0 48 48"><g fill="none" fill-rule="nonzero"><circle cx="24" cy="24" r="24" fill="#FFF" opacity=".8"/><path fill="#0B1F35" d="M27.004 24.176l6.6 6.6a2 2 0 1 1-2.829 2.828l-6.6-6.6-6.599 6.6a2 2 0 1 1-2.828-2.829l6.6-6.6-6.6-6.599a2 2 0 1 1 2.828-2.828l6.6 6.6 6.6-6.6a2 2 0 1 1 2.828 2.828l-6.6 6.6z"/></g></svg>
